X: 251
T:Crowley's
M:C|
L:1/8
R:reel
D:John Doyle: Evening Comes Early
Z:Devin McCabe
K:DMix
A,D D/2D/2D A,D=FD|ECB,C ECDC|A,D D/2D/2D A,D=FD|EGcG ED D/2D/2D|
!A,D D/2D/2D A,D=FD|ECB,C ECDC|A,D D/2D/2D A,D=FD|EGcG ED D/2D/2D:|
!:zgfg egdg|ecgc e~c3|zgfg egdB|cG E/2F/2G AD D/2D/2D|
!zgfg egdg|ecgc acgc|E/2F/2G AB cGEG|1A/2c/2A GE AD D/2D/2D:|2A/2c/2A GE
 ADdc|
!:Adfd edfd|cage (3Bcd ec|Adfd edfd|cage f~d3|
!Adfd edfd|c/2d/2e Ac G2EC|E/2F/2G AB cGEG|12A/2c/2A GE ADdc:|2A/2c/2A G
E ADDC||
